X: 1
T: Miss Barbara Hay's Favorite
C: Robert Mackintosh
N: Robert Mackintosh's birthday seems to be unknown; he died in London in 1807.
N: Chords by John Chambers; some are inferred from the bass note.
N: The Bm chord in the next-to-last bar is written out and is a bit unusual.
R: jig
Z: 2010 John Chambers <jc:trillian.mit.edu>
M: 6/8
L: 1/8
K: G
|: "G"G3 (Tgfg) | d3 GAB | "C"Tc2B "A7"A2G | "D"(TFEF) D3 \
|  "G"G3 (Tgfg) | d3 "A7"gab | "D"agf "A7"ed^c | "D"[d3A3F3] D3 :|
|: "G"(B/c/dB) gdB | "D7"c2a- acA | "G"(B/c/d)B (G/A/B)G | "C"EFG "D"AFD \
|  "G"(B/c/dB) gdB | "D7"c2a- acA | "G"Bcd cBA | "D"[G3D3B,3] "G"[G2D2B,2] :|
d/c/ \
| "G"Bcd "C"ecB | "D"ABc "Bm"dBA | "Em"GAB "C"EFG | "A7"ABG "D"FED \
| "G"Bgd "C"ecB | "D"ABc "Bm"dBG | "C"EcB "D"AGF | "G"[G3D3B,3] B,2c |
| "G"Bcd "C"ecB | "D"ABc "Bm"dBA | "Em"GAB "A7"EFG | "D"AGF "D7"EFD \
| "G"(TGFG) "D"AGA | "G"BAB "C"cde | "G"dBG "Bm"AFD | "G"[G3D3B,3] G,2 |]
%%center Book46/MissBarbaraHaysFavorite_G-JC.abc

%%sep 1 1 500
%%sep 1 1 500

